src/assets/outline/Weight.svg

<svg width="24" height="24" viewBox="0 0 24 24"  xmlns="http://www.w3.org/2000/svg">
<path d="M17.1802 18.75C15.4702 18.75 13.4302 18.1 13.4302 15V9C13.4302 5.9 15.4702 5.25 17.1802 5.25C18.8902 5.25 20.9302 5.9 20.9302 9V15C20.9302 18.1 18.8902 18.75 17.1802 18.75ZM17.1802 6.75C15.5602 6.75 14.9302 7.38 14.9302 9V15C14.9302 16.62 15.5602 17.25 17.1802 17.25C18.8002 17.25 19.4302 16.62 19.4302 15V9C19.4302 7.38 18.8002 6.75 17.1802 6.75Z" />
<path d="M6.81982 18.75C5.10982 18.75 3.06982 18.1 3.06982 15V9C3.06982 5.9 5.10982 5.25 6.81982 5.25C8.52982 5.25 10.5698 5.9 10.5698 9V15C10.5698 18.1 8.52982 18.75 6.81982 18.75ZM6.81982 6.75C5.19982 6.75 4.56982 7.38 4.56982 9V15C4.56982 16.62 5.19982 17.25 6.81982 17.25C8.43982 17.25 9.06982 16.62 9.06982 15V9C9.06982 7.38 8.43982 6.75 6.81982 6.75Z" />
<path d="M14.1798 12.75H9.81982C9.40982 12.75 9.06982 12.41 9.06982 12C9.06982 11.59 9.40982 11.25 9.81982 11.25H14.1798C14.5898 11.25 14.9298 11.59 14.9298 12C14.9298 12.41 14.5998 12.75 14.1798 12.75Z" />
<path d="M22.5 15.25C22.09 15.25 21.75 14.91 21.75 14.5V9.5C21.75 9.09 22.09 8.75 22.5 8.75C22.91 8.75 23.25 9.09 23.25 9.5V14.5C23.25 14.91 22.91 15.25 22.5 15.25Z" />
<path d="M1.5 15.25C1.09 15.25 0.75 14.91 0.75 14.5V9.5C0.75 9.09 1.09 8.75 1.5 8.75C1.91 8.75 2.25 9.09 2.25 9.5V14.5C2.25 14.91 1.91 15.25 1.5 15.25Z" />
</svg>

<?xml version="1.0" encoding="UTF-8"?>
<svg width="24" height="24" viewBox="0 0 24 24" xmlns="http://www.w3.org/2000/svg">
 <path d="m17.18 18.75c-1.71 0-3.75-0.65-3.75-3.75v-6c0-3.1 2.04-3.75 3.75-3.75s3.75 0.65 3.75 3.75v6c0 3.1-2.04 3.75-3.75 3.75zm0-12c-1.62 0-2.25 0.63-2.25 2.25v6c0 1.62 0.63 2.25 2.25 2.25s2.25-0.63 2.25-2.25v-6c0-1.62-0.63-2.25-2.25-2.25z"/>
 <path d="m6.8198 18.75c-1.71 0-3.75-0.65-3.75-3.75v-6c0-3.1 2.04-3.75 3.75-3.75s3.75 0.65 3.75 3.75v6c0 3.1-2.04 3.75-3.75 3.75zm0-12c-1.62 0-2.25 0.63-2.25 2.25v6c0 1.62 0.63 2.25 2.25 2.25s2.25-0.63 2.25-2.25v-6c0-1.62-0.63-2.25-2.25-2.25z"/>
 <path d="m14.18 12.75h-4.36c-0.41 0-0.75-0.34-0.75-0.75s0.34-0.75 0.75-0.75h4.36c0.41 0 0.75 0.34 0.75 0.75s-0.33 0.75-0.75 0.75z"/>
 <path d="m22.5 15.25c-0.41 0-0.75-0.34-0.75-0.75v-5c0-0.41 0.34-0.75 0.75-0.75s0.75 0.34 0.75 0.75v5c0 0.41-0.34 0.75-0.75 0.75z"/>
 <path d="m1.5 15.25c-0.41 0-0.75-0.34-0.75-0.75v-5c0-0.41 0.34-0.75 0.75-0.75s0.75 0.34 0.75 0.75v5c0 0.41-0.34 0.75-0.75 0.75z"/>
</svg>
